X: 2044
T: Pigeon on the Statue
R: jig
C: Rick Gagne
N: 1988 on tenor banjo
M: 6/8
Q: 1/4=165
K: Ador
A | "C#m"^cde "D"d^cA | "Em"GBG E2D | "Am"EAc "G"GBd | "Am"Ace "G"dBG | 
"C#m"^cde "D"d^cA | "Em"GBG E2D | "Am"EAc "G"GBd | "Em"edB "Am"A2 :|
B | "Am"c2c cBA | "Em"Bee Bee | "C"c2c "Am"cBA | "Em"gae "Bm"f2e | 
"Am"c2c cBA | "Em"Bee Bee | "C"gae "Bm"Bcd | "G"edB "Am"A2 :|
